usr/share/icons/biglinux-icons-material/scalable/mimetypes/application-x-skgc.svg

<svg width="24" height="24" viewBox="0 0 24 24" fill="none" xmlns="http://www.w3.org/2000/svg">
<rect x="1" y="1" width="22" height="22" rx="6.6" fill="url(#paint0_radial_3_1225)"/>
<path d="M12.0909 5C10.3282 5 8.90909 6.41909 8.90909 8.18182H9.54545C9.54545 6.77164 10.6807 5.63636 12.0909 5.63636C13.5011 5.63636 14.6364 6.77164 14.6364 8.18182V12H7V19H17.1818V12H15.2727V8.18182C15.2727 6.41909 13.8536 5 12.0909 5Z" fill="#FDDDA3"/>
<defs>
<radialGradient id="paint0_radial_3_1225" cx="0" cy="0" r="1" gradientUnits="userSpaceOnUse" gradientTransform="translate(17.5 1) rotate(116.565) scale(24.5967)">
<stop stop-color="#F8BD62"/>
<stop offset="1" stop-color="#DD8A0D"/>
</radialGradient>
</defs>
</svg>

<svg xmlns="http://www.w3.org/2000/svg" width="24" height="24" fill="none"><rect width="22" height="22" x="1" y="1" fill="url(#a)" rx="6.6"/><path fill="#FDDDA3" d="M12.09 5a3.175 3.175 0 0 0-3.18 3.182h.635a2.54 2.54 0 0 1 2.546-2.546 2.54 2.54 0 0 1 2.545 2.546V12H7v7h10.182v-7h-1.91V8.182A3.175 3.175 0 0 0 12.092 5Z"/><defs><radialGradient id="a" cx="0" cy="0" r="1" gradientTransform="rotate(116.565 8.441 5.908) scale(24.5967)" gradientUnits="userSpaceOnUse"><stop stop-color="#F8BD62"/><stop offset="1" stop-color="#DD8A0D"/></radialGradient></defs></svg>
